X:84
T: Jungfer Doertchen
N: Q0057W
O: Mitteleuropa, Deutschland (BRD) , Hessen
R: Ballade, Todesahnung, Tod, Selbstmord
M: 3/4
L: 1/16
K: G
D4B2A2 | G4e4e2d2 | d4z2
d2eed2 | c4A4d2c2 | B4z2
G2(3G2G2e2 | e4c2e2(3g2f2e2 | d4B2
d2(3e2e2d2 | c4A2e2d2c2 | B4

